X:1
T:Alma Redemptoris Mater - Aichinger
T:#
%%score [ 1 2 3 4 ]
L:1/8
Q:1/4=120
M:none
K:D
V:1 treble nm="Soprano" snm="S"
V:2 treble nm="Alto" snm="A"
V:3 treble-8 nm="Tenor" snm="T"
V:4 bass nm="Bass" snm="B"
V:1
 z8 | x12 z16 || %2
w: ||
"^Alma Redemptoris Mater""^Gregor Aichinger\n (1564-1628)"[Q:1/4=200] (A6 GF E4) A4 | (F8 E8) | %4
w: Re\- * * * dem-|pto\- *|
 A8 G8- |[M:4/2][Q:1/4=200][Q:1/4=200][Q:1/4=200][Q:1/4=200] G8 F8 | z4 d4 c6 c2 | B8 A8 | %8
w: ris Ma\-|* ter,|quae per- vi-|a coe-|
 A8 F4 B4- | B4 (A6 ^GF !courtesy!^G4) | A16 | z8 z4 d4 | d4 d4 (c2 B2 c2 A2 | B2 A2 B2 c2 d8) | %14
w: li por- ta|* ma\- * * *|nes,|et|stel- la ma\- * * *||
 c4 A4 B4 A4 | G8 F4 A4 | G4 F2 D2 E4 F4 | z4 A4 B4 c2 d2 | B4 A4 c6 c2 | c4 A4 B8 | (c8 d6 cB | %21
w: ris, et stel- la|ma- ris, suc-|cur- re ca- den- ti,|suc- cur- re ca-|den- ti, sur- ge-|re qui cu\-||
 A8) B8 | A12 G4 | F16 | z4 d8 c4 | B4 ^A4 B8 | ^A4 A4 B8 | c4 c4 d8 | c4 B8 A4 | G4 A4 B4 F4 | %30
w: * rat|po- pu-|lo:|tu quae|ge- nu- i-|sti, na- tu-|ra mi- ran-|te, tu- um|san- ctum Ge- ni-|
 A8 A4 (d4- | d4 c4 B8) | A4 (F2 E2 F2 G2 A4- | A2 ^GF !courtesy!^G4) A8 | z8 z4 A4- | %35
w: to- rem, Vir\-||go pri\- * * * *|* * * * us,|Vir\-|
 A4 A4 (B6 A2 | G8) A8 | z4 A8 A4 | A8 B4 d4- | d4 c4 B6 B2 | A8 A8- | A4 A4 A8 | (E6 F2 G4 F2 E2 | %43
w: * go pri\- *|* us,|Vir- go|pri- us ac|* po- ste- ri-|us, Ga\-|* bri- e-|lis * * * *|
 D4) D4 G8 | F4 (d6 c2 B2 A2) | (G2 A2 B4) (A2 B2 c2 d2 | e8) A4 A4 | (B2 c2 d2 B2 c2 B2 c2 d2 | %48
w: * ab o-|re su\- * * *|* * * mens * * *|* il- lud|A\- * * * * * * *|
 e2 d2 B2 c2 d2 c2 B2 A2 | G2 A2 B4) A8 | B8 A8 | G8 F8 | z4 (e2 dc B2 c2 d4- | %53
w: |* * * ve,|il- lud|A- ve|pec\- * * * * *|
 d4) c4 (B2 AG F2 G2 | A8) A8 | %55
w: * ca- to\- * * * *|* rum,|
[Q:1/4=199] (e2[Q:1/4=197] d[Q:1/4=197]c[Q:1/4=195] B2[Q:1/4=194] c2[Q:1/4=192] d4)[Q:1/4=188] c4 | %56
w: pec\- * * * * * ca-|
[Q:1/4=184] B8[Q:1/4=179] A4[Q:1/4=177] A4- | %57
w: to- rum mi\-|
[Q:1/4=174] A4[Q:1/4=171] ^G4[Q:1/4=170] !fermata!A16 | !fermata!A16 | %59
w: * se- re-|re.|
V:2
 z8 | x12 z16 || (E6 D2 C4) A,4- | A,4 A8 G4 | (F2 E2 D2 C2 B,2 C2 D4-) |[M:4/2] (D2 CB, C4) D8 | %6
w: ||Re\- * * dem\-|* pto- ris|Ma\- * * * * * *|* * * * ter,|
 z4 F4 F6 F2 | D4 E8 E4 | F12 F4 | E16 | C4 F4 F4 F4 | (E2 D2 E2 C2 D8) | A,4 A4 A4 A4 | %13
w: quae per- vi-|a coe- li|por- ta|ma-|nes, et stel- la|ma\- * * * *|ris, et stel- la|
 (G2 F2 G2 E2 F8) | E4 F4 D2 E2 F4- | (F2 ED E4) F4 F4 | E4 D2 B,2 C4 D2 A2 | D4 E2 F2 G4 A2 F2 | %18
w: ma\- * * * *|ris, et stel- la ma\-|* * * * ris, suc-|cur- re ca- den- ti, suc-|cur- re, suc- cur- re ca-|
 ^G4 A4 E6 E2 | E4 F4 G4 G4 | F4 E4 (D6 E2 | F8) B,8 | C4 D4 (E6 D2 | C8) C8 | B,4 F4 F4 F4- | %25
w: den- ti, sur- ge-|re qui cu- rat|po- pu- lo, *|* qui|cu- rat po\- *|* pu-|lo: tu quae ge\-|
 F4 F4 F8 | F4 F4 F8 | A4 A4 A8 | A4 F8 F4 | D4 F4 E4 D4 | E8 F4 (D2 E2 | F2 G2 A8) ^G4 | %32
w: * nu- i-|sti, na- tu-|ra mi- ran-|te, tu- um|san- ctum Ge- ni-|to- rem, Vir\- *|* * * go|
 (A6 =G2 F4 E4 | D8) E4 A4 | G4 F8 E4- | E4 F4 D4 (E4- | E2 F2 G8) F4 | E16 | (F8 G8) | %39
w: pri\- * * *|* us, Vir-|go pri- us|* ac po- ste\-|* * * ri-|us,|Vir\- *|
 A4 A,4 B,8 | C4 D4 E4 F4 | E6 D2 C4 E4- | E2 E2 C4 E4 D4 | (B,4 D6 CB, C4) | D4 (F6 E2 D2 F2) | %45
w: go, Vir- go|pri- us ac po-|ste- ri- us, Ga\-|* bri- e- lis ab|o\- * * * *|re su\- * * *|
 (E2 F2 G4) (F6 ED | G2 F2 E2 G2 F2 E2 D2 C2 | B,8) (F8 | G6 FE F8 | E6 D2 C4) F4- | %50
w: * * * mens, * *||* su\-||* * * mens|
 (F2 ED E4) F4 D4 | E8 A,4 (A4- | A2 GF E2 F2 G2 A2 B4) | A8 (D6 E2 | F2 ED C2 E2 D2 E2 F4) | %55
w: * * * * il- lud|A- ve pec\-||ca- to\- *||
 G8 F4 A4 | (G2 FE D2 E2 F2 ED C2 D2 | E8 !fermata!C16) | !fermata!D16 | %59
w: rum mi- se-|re\- * * * * * * * * *||re.|
V:3
 z8 | x12 z16 || (c6 d2 e4) c4 | (d8 B8) | A4 (d6 c2 B2 A2) |[M:4/2][K:treble-8] G8 A8 | %6
w: ||Re\- * * dem-|pto\- *|ris Ma\- * * *|* ter,|
 z4 A4 A6 A2 | B8 c8- | c4 A4 d8 | c8 B8 | A8 z4 A4 | A4 A4 (G2 F2 G2 FE | F2 D2 F2 G2 A8) | %13
w: quae per- vi-|a coe\-|* li por-|ta ma-|nes, et|stel- la ma\- * * * *||
 E4 E4 (D2 E2 F2 G2 | A6 GF G4) A4 | (B4 c4) d8 | z8 z4 A4 | B4 c2 d2 B4 A4 | z16 | z16 | %20
w: ris, et stel\- * * *|* * * * la|ma\- * ris,|suc-|cur- re ca- den- ti,|||
 z8 z4 d4- | d2 d2 c4 d4 e4- | e4 d4 (c2 B2 B4- | B4 ^A2 ^G2 A4) A4 | B4 B8 c4 | d4 c4 d8 | %26
w: sur\-|* ge- re qui cu\-|* rat po\- * *|* * * * pu-|lo: tu quae|ge- nu- i-|
 c4 c4 d8 | e4 e4 f8 | e4 d8 c4 | B4 d4 (B2 c2 d4-) | (d2 c2 c2 Bc d6 c2 | B4) A4 e8 | A4 (d8 c4 | %33
w: sti, na- tu-|ra mi- ran-|te, tu- um|san- ctum Ge\- * *||* ni- to-|rem, Vir\- *|
 B8) A8 | z4 d8 c4 | c8 B8- | B8 d6 d2 | c8 z8 | z4 d8 d4 | e4 f8 e4- | e4 d4 (c6 BA | %41
w: * go|pri- us|ac po\-|* ste- ri-|us,|Vir- go|pri- us ac|* po- ste\- * *|
 c6) d2 e4 c4- | c2 c2 A4 B4 A4 | (B8 e8) | A8 z8 | z4 (e2 d2 c2 B2 A4) | (B6 c2 d2 c2 f2 e2 | %47
w: * ri- us, Ga\-|* bri- e- lis ab|o\- *|re|su\- * * * *|mens * * * * *|
 d2 c2 B4) (A6 GF | B2 A2 G2 A2 B2 A2 d2 c2 | B2 A2 G4) A4 d4- | (d4 c2 B2 c4 B2 A2 | B4) c8 (f4- | %52
w: * * * il\- * *||* * * lud A\-||* ve pec\-|
 f2 ed c2 d2 e4) d4 | f4 e4 z4 (f2 ed | c2 d2 e2 c2 f2 e2 d2 c2) | (B2 A2 B4) (A2 B2 c2 d2 | %56
w: * * * * * * ca-|to- rum, mi\- * *||* * * se\- * * *|
 e2 dc B2 c2 d2 c2 c2 BA | B8) !fermata!A16 | !fermata!F16 | %59
w: |* re-|re.|
V:4
 D,2 F,2 G,2 A,2 | B,2 C2 D2 C2 B,2 A,2 G,2 A,2 B,2 A,2 F,2 E,2 F,4 || A,8 A,8 | D,8 (E,8 | %4
w: Al\- * * *|* * * * * * * * * * ma * *|Re- dem-|pto- ris|
 F,8) (G,6 F,2) |[M:4/2] E,8 D,8 | z4 D,4 F,6 F,2 | G,8 A,8 | F,8 D,4 B,,4 | (C,6 D,2 E,8) | %10
w: * Ma\- *|* ter,|quae per- vi-|a coe-|li por- ta|ma\- * *|
 A,,4 D,4 D,4 D,4 | (C,2 B,,2 C,2 A,,2 B,,2 A,,2 B,,2 C,2 | D,8) A,,8 | z16 | z16 | z8 z4 D,4 | %16
w: nes, et stel- la|ma\- * * * * * * *|* ris,|||suc-|
 E,4 F,2 G,2 E,4 D,4 | z16 | z8 A,6 A,2 | A,4 A,4 G,8 | (A,8 B,6 A,G, | F,4) A,4 (G,8 | F,8) (E,8 | %23
w: cur- re ca- den- ti,||sur- ge-|re qui cu\-||* rat po\-|* pu\-|
 F,8) F,8 | z4 B,,8 ^A,,4 | B,,4 F,4 B,8 | F,4 F,4 B,8 | A,4 A,4 D8 | A,4 B,8 F,4 | %29
w: * lo:|tu quae|ge- nu- i-|sti, na- tu-|ra mi- ran-|te, tu- um|
 G,4 D,4 G,4 B,4 | A,8 D,8 | z16 | z16 | z4 (D8 C4 | B,8) A,8 | (A,6 G,F, G,6 F,2 | E,8) D,8 | %37
w: san- ctum Ge- ni-|to- rem,|||Vir\- *|* go|pri\- * * * *|* us|
 A,8 (C8 | D8) (B,8 | A,8) G,8 | A,8 A,8 | A,12 A,4 | A,8 E,4 F,4 | (G,6 F,2 E,8) | D,8 D,8 | %45
w: ac po\-|* ste\-|* ri-|* us,|Ga- bri-|e- lis ab|o\- * *|re su\-|
 E,8 F,8 | (E,8 F,8 | G,8 F,8) | E,8 (D,8 | E,8 F,8) | (G,8 F,8 | E,8) F,8 | A,8 G,8 | (A,8 B,8) | %54
w: * mens|il\- *||lud A\-|||* ve|pec- ca-|to\- *|
 A,8 D,8 | E,8 (F,8 | G,8 F,8 | E,8 A,,16) | D,16 | %59
w: rum mi-|se- re\-|||re.|

